X:1
T: Miss Jessie Stewart
C:
R:Jig
Q:180
K:D
M:6/8
L:1/16
|:D2F2D2 F4E2|D2F2D2 f4e2|d2c2B2 A2F2D2|E2F2E2 E4F2|
D2F2D2 F4E2|D2F2D2 f4e2|d2c2B2 A2F2D2|D2F2E2 D6|
d2e2f2 e2f2g2|a2g2f2 e2c2A2|B2d2B2 A2F2D2|E2F2E2 E4A2|
d2e2f2 e2f2g2|a2g2f2 e2c2A2|B2d2B2 A2F2D2|D2F2D2 D6:|
